X: 21151
M: C|
L: 1/8
K: D
d |\
b>fa>e f>de>B | d>BA>F d3e | f>de>B d>BA>F | E<EF>^A B3 :|
|: a |\
b>af>a b>af>b | a>fe>f {f}a3d' | b>af>a b>a {g}f>e | d>Bd>e f3a |
b>fa>e f>de>B | d>BA>F d3e | f>de>c d/c/B/A/ d>F | E<EF>^A B3 :|


